X:1
T:He Took My Place
T:He Took My Place
T:John Robson Sweney
T:Eliza Edmunds Hewitt, 1893
T:Public Domain Courtesy of the Cyber Hymnal™
T:Public Domain Courtesy of the Cyber Hymnal™
C:John Robson Sweney
Z:Public Domain
Z:Courtesy of the Cyber Hymnal™
%%score ( 1 2 ) ( 3 4 )
L:1/8
Q:1/4=90
M:3/4
K:Eb
V:1 treble 
V:2 treble 
V:3 bass 
V:4 bass 
V:1
 [EG][EG] [FA] | [GB]3 [Ge] [Bd][Ac] | [GB]3 [EG] [EB][EG] | [DF]3 [DF] [EG][FA] | %4
w: 1.~A trem- bling|soul, I sought the|Lord, My sin con-|fessed, my guilt de-|
w: 2.~Here rests my|heart; as- sur- ance|sweet, His bless- èd|work He will com-|
w: 3.~When sor- row|veils the smil- ing|day, When e- vil|foes be- set my|
w: 4.~No room for|doubt, no room for|fears, When to my|view the cross ap-|
 [EG]3 [EG] [EG][FA] | [GB]3 [Ge] [Ge][Bd] | [Ac]3 [Ae] [Ad][Ac] | [Fd]3 [Ec] [EG][E=A] | [DB]3 || %9
w: plored; How soft and|sweet, His word to|me, “I took thy|place, and died for|thee.”|
w: plete, Since in His|love, so great and|free, He took my|place, and died for|me.|
w: way, A- bun- dant|grace in Him I|see, He took my|place, and died for|me.|
w: pears, My joy- ful|song shall ev- er|be, He took my|place, and died for|me.|
[M:12/8]"^Refrain" B (BD) F | (z2 A) (AE)F x8 | (z2 E2) [EG] ([EG] [GB])[Ge] x4 | %12
w: |||
w: No o- * ther|* hope, * no|* o- ther * plea;|
w: |||
w: |||
 d8 [Ac] [Ad]2 [Ac] | [GB]8 [EG] ([EG][FA])[^F=A] x2 | [GB]8 [GB] ([GB][Ac])[B_d] | %15
w: |||
w: * He took my|place, and died * for|me; O pre- * cious|
w: |||
w: |||
 [Ac]8 [ce] [Bd]2 [FA] | [Ad]8 [Dc]"^riten." [DA]2 [B,D] | E8 B,2 |] %18
w: |||
w: Lord, of Cal- va-|ry! He took my|place and|
w: |||
w: |||
V:2
 x3 | x6 | x6 | x6 | x6 | x6 | x6 | x6 | x3 ||[M:12/8] x4 | A8 (D D2 D D2) | G8 E E2 E | %12
 (A2 A A2 A A2) x4 | x14 | x12 | x12 | x12 | B,2 B, C2 _C x4 |] %18
V:3
 [E,B,][E,B,] [E,B,] | [E,E]3 [E,B,] [E,E][E,E] | [E,E]3 [E,B,] [G,B,][E,B,] | %3
w: ~ ~ ~|~ ~ ~ ~|~ ~ ~ ~|
 [B,,B,]3 [B,,B,] [B,,B,][B,,B,] | [E,B,]3 [E,B,] [E,B,][E,B,] | [E,E]3 [E,B,] [E,B,][G,E] | %6
w: ~ ~ ~ ~|~ ~ ~ ~|~ ~ ~ ~|
 [A,E]3 [A,C] [A,D][A,E] | B,3 [F,=A,] [F,B,][F,C] | [B,,B,]3 ||[M:12/8] z4 | %10
w: ~ ~ ~ ~|~ ~ ~ ~|~||
 z2 [B,,F,] [B,,F,]2 [B,,F,] [B,,B,]2 z4 x2 | z2 [E,B,] [E,B,]2 [E,B,] [E,B,]2 z4 | %12
w: No o- ther hope,|no o- ther plea,|
 z2 B, ([B,F]2 [B,F]) [B,F]2 [B,F] [B,F]2 [B,D] | E8 E,2 z4 | z2 [E,E] [E,E]2 [E,E] [E,E]2 z4 | %15
w: He took * my place ~ ~|And died|for me. O pre-|
 z2 [A,E] [A,E]2 [A,E] [A,E]2 z4 | z2 B, B,2 B, B,2 [B,,A,] [B,,F,]2 [B,,A,] | %17
w: cious Lamb of Cal-|va- ry! He took my place ~|
 (G,2 G, A,2 A, G,2) x2 |] %18
w: ~ ~ ~ and died|
V:4
 x3 | x6 | x6 | x6 | x6 | x6 | x6 | B,3 x3 | x3 ||[M:12/8] x4 | x14 | x12 | x2 B, x9 | %13
 E,2 (E, G,2) B, x8 | x12 | x12 | x2 B, B,2 B, B,2 x4 | E,8 x2 |] %18

